!!!OTL: Der Abendgang Es wonet lieb bey liebe
!!!ARE: Europa, Mitteleuropa, Deutschland
!!!YOR: 1, S. 179
!!    1538 gedruckt in Nuernberg
!!!SCT: Q0019
!!!YEM: Copyright 1995, estate of Helmut Schaffrath.
**kern
*ICvox
*Ivox
!! Irregular meter.
*MX
*k[]
*a:
{4a
=1
4ccn
4ccn
4dd
4dd
=2
2ee
2ee
4r}
{4ee
=3
4ggn
4ggn
4ffn
4ffn
=4
2ee
2dd
4r}
{4dd
=5
4ee
4ee
4ee
4ee
=6
2ffn
2ee
4r}
{4ee
=7
4dd
4ccn
8dd
4ee
16dd
16ccn
=8
2b
2a
4r}
{4ee
=9
4dd
4b
4ccn
4a
=10
4b
4a
2gn
4r}
{4dd
=11
4dd
4dd
4dd
4ee
=12
2ffn
2ee
4r}
{4ee
=13
4dd
4ccn
8dd
4ee
16dd
16ccn
=14
2b
2a}
==
!!!AGN: Ballade, Liebe, Trennung, Tod
!! Kleinere Melodievarianten aus anderen Quellen abgedruckt.
!!!ONB: ESAC (Essen Associative Code) Database: BALLADE
!!!AMT: irregular
!!!AIN: vox
!!!EED: Helmut Schaffrath
!!!EEV: 1.0
*-
